static/img/kroki/5fb9c18f566ec172c3596a12f2f73300.svg

<?xml version="1.0" encoding="us-ascii" standalone="no"?><svg xmlns="http://www.w3.org/2000/svg" xmlns:xlink="http://www.w3.org/1999/xlink" contentStyleType="text/css" height="252px" preserveAspectRatio="none" style="width:1983px;height:252px;" version="1.1" viewBox="0 0 1983 252" width="1983px" zoomAndPan="magnify"><defs/><g><!--class azure_machine_learning_workspace--><g id="elem_azure_machine_learning_workspace"><rect codeLine="23" fill="#3D176E" height="39.7891" id="azure_machine_learning_workspace" rx="2.5" ry="2.5" style="stroke:#000D19;stroke-width:0.5;" width="344" x="7" y="206.58"/><ellipse cx="22" cy="226.4745" fill="#ADD1B2" rx="11" ry="11" style="stroke:#181818;stroke-width:1.0;"/><path d="M24.9688,232.1152 Q24.3906,232.412 23.75,232.5527 Q23.1094,232.7089 22.4063,232.7089 Q19.9063,232.7089 18.5781,231.0683 Q17.2656,229.412 17.2656,226.287 Q17.2656,223.162 18.5781,221.5058 Q19.9063,219.8495 22.4063,219.8495 Q23.1094,219.8495 23.75,220.0058 Q24.4063,220.162 24.9688,220.4589 L24.9688,223.1777 Q24.3438,222.5995 23.75,222.3339 Q23.1563,222.0527 22.5313,222.0527 Q21.1875,222.0527 20.5,223.1308 Q19.8125,224.1933 19.8125,226.287 Q19.8125,228.3808 20.5,229.4589 Q21.1875,230.5214 22.5313,230.5214 Q23.1563,230.5214 23.75,230.2558 Q24.3438,229.9745 24.9688,229.3964 L24.9688,232.1152 Z " fill="#000000"/><text fill="#D9B8FF" font-family="Helvetica" font-size="17" lengthAdjust="spacing" textLength="302" x="41" y="232.3598">azure_machine_learning_workspace</text></g><!--class azure_monitor_diagnostic_settings--><g id="elem_azure_monitor_diagnostic_settings"><rect codeLine="26" fill="#3D176E" height="39.7891" id="azure_monitor_diagnostic_settings" rx="2.5" ry="2.5" style="stroke:#000D19;stroke-width:0.5;" width="332" x="952" y="7"/><ellipse cx="967" cy="26.8945" fill="#ADD1B2" rx="11" ry="11" style="stroke:#181818;stroke-width:1.0;"/><path d="M969.9688,32.5352 Q969.3906,32.832 968.75,32.9727 Q968.1094,33.1289 967.4063,33.1289 Q964.9063,33.1289 963.5781,31.4883 Q962.2656,29.832 962.2656,26.707 Q962.2656,23.582 963.5781,21.9258 Q964.9063,20.2695 967.4063,20.2695 Q968.1094,20.2695 968.75,20.4258 Q969.4063,20.582 969.9688,20.8789 L969.9688,23.5977 Q969.3438,23.0195 968.75,22.7539 Q968.1563,22.4727 967.5313,22.4727 Q966.1875,22.4727 965.5,23.5508 Q964.8125,24.6133 964.8125,26.707 Q964.8125,28.8008 965.5,29.8789 Q966.1875,30.9414 967.5313,30.9414 Q968.1563,30.9414 968.75,30.6758 Q969.3438,30.3945 969.9688,29.8164 L969.9688,32.5352 Z " fill="#000000"/><text fill="#D9B8FF" font-family="Helvetica" font-size="17" lengthAdjust="spacing" textLength="290" x="986" y="32.7798">azure_monitor_diagnostic_settings</text></g><!--class azure_network_flow_log--><g id="elem_azure_network_flow_log"><rect codeLine="29" fill="#3D176E" height="39.7891" id="azure_network_flow_log" rx="2.5" ry="2.5" style="stroke:#000D19;stroke-width:0.5;" width="246" x="386" y="206.58"/><ellipse cx="401" cy="226.4745" fill="#ADD1B2" rx="11" ry="11" style="stroke:#181818;stroke-width:1.0;"/><path d="M403.9688,232.1152 Q403.3906,232.412 402.75,232.5527 Q402.1094,232.7089 401.4063,232.7089 Q398.9063,232.7089 397.5781,231.0683 Q396.2656,229.412 396.2656,226.287 Q396.2656,223.162 397.5781,221.5058 Q398.9063,219.8495 401.4063,219.8495 Q402.1094,219.8495 402.75,220.0058 Q403.4063,220.162 403.9688,220.4589 L403.9688,223.1777 Q403.3438,222.5995 402.75,222.3339 Q402.1563,222.0527 401.5313,222.0527 Q400.1875,222.0527 399.5,223.1308 Q398.8125,224.1933 398.8125,226.287 Q398.8125,228.3808 399.5,229.4589 Q400.1875,230.5214 401.5313,230.5214 Q402.1563,230.5214 402.75,230.2558 Q403.3438,229.9745 403.9688,229.3964 L403.9688,232.1152 Z " fill="#000000"/><text fill="#D9B8FF" font-family="Helvetica" font-size="17" lengthAdjust="spacing" textLength="204" x="420" y="232.3598">azure_network_flow_log</text></g><!--class azure_storage_account--><g id="elem_azure_storage_account"><rect codeLine="32" fill="#3D176E" height="39.7891" id="azure_storage_account" rx="2.5" ry="2.5" style="stroke:#000D19;stroke-width:0.5;" width="233" x="1001.5" y="106.79"/><ellipse cx="1016.5" cy="126.6845" fill="#ADD1B2" rx="11" ry="11" style="stroke:#181818;stroke-width:1.0;"/><path d="M1019.4688,132.3252 Q1018.8906,132.622 1018.25,132.7627 Q1017.6094,132.9189 1016.9063,132.9189 Q1014.4063,132.9189 1013.0781,131.2783 Q1011.7656,129.622 1011.7656,126.497 Q1011.7656,123.372 1013.0781,121.7158 Q1014.4063,120.0595 1016.9063,120.0595 Q1017.6094,120.0595 1018.25,120.2158 Q1018.9063,120.372 1019.4688,120.6689 L1019.4688,123.3877 Q1018.8438,122.8095 1018.25,122.5439 Q1017.6563,122.2627 1017.0313,122.2627 Q1015.6875,122.2627 1015,123.3408 Q1014.3125,124.4033 1014.3125,126.497 Q1014.3125,128.5908 1015,129.6689 Q1015.6875,130.7314 1017.0313,130.7314 Q1017.6563,130.7314 1018.25,130.4658 Q1018.8438,130.1845 1019.4688,129.6064 L1019.4688,132.3252 Z " fill="#000000"/><text fill="#D9B8FF" font-family="Helvetica" font-size="17" lengthAdjust="spacing" textLength="191" x="1035.5" y="132.5698">azure_storage_account</text></g><!--class azure_storage_blob_container--><g id="elem_azure_storage_blob_container"><rect codeLine="35" fill="#3D176E" height="39.7891" id="azure_storage_blob_container" rx="2.5" ry="2.5" style="stroke:#000D19;stroke-width:0.5;" width="291" x="667.5" y="206.58"/><ellipse cx="682.5" cy="226.4745" fill="#ADD1B2" rx="11" ry="11" style="stroke:#181818;stroke-width:1.0;"/><path d="M685.4688,232.1152 Q684.8906,232.412 684.25,232.5527 Q683.6094,232.7089 682.9063,232.7089 Q680.4063,232.7089 679.0781,231.0683 Q677.7656,229.412 677.7656,226.287 Q677.7656,223.162 679.0781,221.5058 Q680.4063,219.8495 682.9063,219.8495 Q683.6094,219.8495 684.25,220.0058 Q684.9063,220.162 685.4688,220.4589 L685.4688,223.1777 Q684.8438,222.5995 684.25,222.3339 Q683.6563,222.0527 683.0313,222.0527 Q681.6875,222.0527 681,223.1308 Q680.3125,224.1933 680.3125,226.287 Q680.3125,228.3808 681,229.4589 Q681.6875,230.5214 683.0313,230.5214 Q683.6563,230.5214 684.25,230.2558 Q684.8438,229.9745 685.4688,229.3964 L685.4688,232.1152 Z " fill="#000000"/><text fill="#D9B8FF" font-family="Helvetica" font-size="17" lengthAdjust="spacing" textLength="249" x="701.5" y="232.3598">azure_storage_blob_container</text></g><!--class azure_storage_file_share--><g id="elem_azure_storage_file_share"><rect codeLine="38" fill="#3D176E" height="39.7891" id="azure_storage_file_share" rx="2.5" ry="2.5" style="stroke:#000D19;stroke-width:0.5;" width="249" x="993.5" y="206.58"/><ellipse cx="1008.5" cy="226.4745" fill="#ADD1B2" rx="11" ry="11" style="stroke:#181818;stroke-width:1.0;"/><path d="M1011.4688,232.1152 Q1010.8906,232.412 1010.25,232.5527 Q1009.6094,232.7089 1008.9063,232.7089 Q1006.4063,232.7089 1005.0781,231.0683 Q1003.7656,229.412 1003.7656,226.287 Q1003.7656,223.162 1005.0781,221.5058 Q1006.4063,219.8495 1008.9063,219.8495 Q1009.6094,219.8495 1010.25,220.0058 Q1010.9063,220.162 1011.4688,220.4589 L1011.4688,223.1777 Q1010.8438,222.5995 1010.25,222.3339 Q1009.6563,222.0527 1009.0313,222.0527 Q1007.6875,222.0527 1007,223.1308 Q1006.3125,224.1933 1006.3125,226.287 Q1006.3125,228.3808 1007,229.4589 Q1007.6875,230.5214 1009.0313,230.5214 Q1009.6563,230.5214 1010.25,230.2558 Q1010.8438,229.9745 1011.4688,229.3964 L1011.4688,232.1152 Z " fill="#000000"/><text fill="#D9B8FF" font-family="Helvetica" font-size="17" lengthAdjust="spacing" textLength="207" x="1027.5" y="232.3598">azure_storage_file_share</text></g><!--class azure_storage_queue--><g id="elem_azure_storage_queue"><rect codeLine="41" fill="#3D176E" height="39.7891" id="azure_storage_queue" rx="2.5" ry="2.5" style="stroke:#000D19;stroke-width:0.5;" width="220" x="1278" y="206.58"/><ellipse cx="1293" cy="226.4745" fill="#ADD1B2" rx="11" ry="11" style="stroke:#181818;stroke-width:1.0;"/><path d="M1295.9688,232.1152 Q1295.3906,232.412 1294.75,232.5527 Q1294.1094,232.7089 1293.4063,232.7089 Q1290.9063,232.7089 1289.5781,231.0683 Q1288.2656,229.412 1288.2656,226.287 Q1288.2656,223.162 1289.5781,221.5058 Q1290.9063,219.8495 1293.4063,219.8495 Q1294.1094,219.8495 1294.75,220.0058 Q1295.4063,220.162 1295.9688,220.4589 L1295.9688,223.1777 Q1295.3438,222.5995 1294.75,222.3339 Q1294.1563,222.0527 1293.5313,222.0527 Q1292.1875,222.0527 1291.5,223.1308 Q1290.8125,224.1933 1290.8125,226.287 Q1290.8125,228.3808 1291.5,229.4589 Q1292.1875,230.5214 1293.5313,230.5214 Q1294.1563,230.5214 1294.75,230.2558 Q1295.3438,229.9745 1295.9688,229.3964 L1295.9688,232.1152 Z " fill="#000000"/><text fill="#D9B8FF" font-family="Helvetica" font-size="17" lengthAdjust="spacing" textLength="178" x="1312" y="232.3598">azure_storage_queue</text></g><!--class azure_storage_sku--><g id="elem_azure_storage_sku"><rect codeLine="44" fill="#3D176E" height="39.7891" id="azure_storage_sku" rx="2.5" ry="2.5" style="stroke:#000D19;stroke-width:0.5;" width="197" x="1533.5" y="206.58"/><ellipse cx="1548.5" cy="226.4745" fill="#ADD1B2" rx="11" ry="11" style="stroke:#181818;stroke-width:1.0;"/><path d="M1551.4688,232.1152 Q1550.8906,232.412 1550.25,232.5527 Q1549.6094,232.7089 1548.9063,232.7089 Q1546.4063,232.7089 1545.0781,231.0683 Q1543.7656,229.412 1543.7656,226.287 Q1543.7656,223.162 1545.0781,221.5058 Q1546.4063,219.8495 1548.9063,219.8495 Q1549.6094,219.8495 1550.25,220.0058 Q1550.9063,220.162 1551.4688,220.4589 L1551.4688,223.1777 Q1550.8438,222.5995 1550.25,222.3339 Q1549.6563,222.0527 1549.0313,222.0527 Q1547.6875,222.0527 1547,223.1308 Q1546.3125,224.1933 1546.3125,226.287 Q1546.3125,228.3808 1547,229.4589 Q1547.6875,230.5214 1549.0313,230.5214 Q1549.6563,230.5214 1550.25,230.2558 Q1550.8438,229.9745 1551.4688,229.3964 L1551.4688,232.1152 Z " fill="#000000"/><text fill="#D9B8FF" font-family="Helvetica" font-size="17" lengthAdjust="spacing" textLength="155" x="1567.5" y="232.3598">azure_storage_sku</text></g><!--class azure_storage_table--><g id="elem_azure_storage_table"><rect codeLine="47" fill="#3D176E" height="39.7891" id="azure_storage_table" rx="2.5" ry="2.5" style="stroke:#000D19;stroke-width:0.5;" width="210" x="1766" y="206.58"/><ellipse cx="1781" cy="226.4745" fill="#ADD1B2" rx="11" ry="11" style="stroke:#181818;stroke-width:1.0;"/><path d="M1783.9688,232.1152 Q1783.3906,232.412 1782.75,232.5527 Q1782.1094,232.7089 1781.4063,232.7089 Q1778.9063,232.7089 1777.5781,231.0683 Q1776.2656,229.412 1776.2656,226.287 Q1776.2656,223.162 1777.5781,221.5058 Q1778.9063,219.8495 1781.4063,219.8495 Q1782.1094,219.8495 1782.75,220.0058 Q1783.4063,220.162 1783.9688,220.4589 L1783.9688,223.1777 Q1783.3438,222.5995 1782.75,222.3339 Q1782.1563,222.0527 1781.5313,222.0527 Q1780.1875,222.0527 1779.5,223.1308 Q1778.8125,224.1933 1778.8125,226.287 Q1778.8125,228.3808 1779.5,229.4589 Q1780.1875,230.5214 1781.5313,230.5214 Q1782.1563,230.5214 1782.75,230.2558 Q1783.3438,229.9745 1783.9688,229.3964 L1783.9688,232.1152 Z " fill="#000000"/><text fill="#D9B8FF" font-family="Helvetica" font-size="17" lengthAdjust="spacing" textLength="168" x="1800" y="232.3598">azure_storage_table</text></g><!--link azure_monitor_diagnostic_settings to azure_storage_account--><g id="link_azure_monitor_diagnostic_settings_azure_storage_account"><path codeLine="50" d="M1118,47.22 C1118,64.36 1118,83.27 1118,100.41 " fill="none" id="azure_monitor_diagnostic_settings-to-azure_storage_account" style="stroke:#1A83AF;stroke-width:2.0;"/><polygon fill="#1A83AF" points="1118,106.41,1122,97.41,1118,101.41,1114,97.41,1118,106.41" style="stroke:#1A83AF;stroke-width:2.0;"/></g><!--link azure_storage_account to azure_machine_learning_workspace--><g id="link_azure_storage_account_azure_machine_learning_workspace"><path codeLine="51" d="M1001.45,139.82 C838.14,156.83 546.0477,187.2483 357.1277,206.9283 " fill="none" id="azure_storage_account-to-azure_machine_learning_workspace" style="stroke:#1A83AF;stroke-width:2.0;"/><polygon fill="#1A83AF" points="351.16,207.55,360.526,210.596,356.1331,207.0319,359.6971,202.639,351.16,207.55" style="stroke:#1A83AF;stroke-width:2.0;"/></g><!--link azure_storage_account to azure_network_flow_log--><g id="link_azure_storage_account_azure_network_flow_log"><path codeLine="52" d="M1001.3,146.43 C894.66,163.55 743.5441,187.819 635.6541,205.139 " fill="none" id="azure_storage_account-to-azure_network_flow_log" style="stroke:#1A83AF;stroke-width:2.0;"/><polygon fill="#1A83AF" points="629.73,206.09,639.2502,208.6129,634.6668,205.2975,637.9822,200.714,629.73,206.09" style="stroke:#1A83AF;stroke-width:2.0;"/></g><!--link azure_storage_account to azure_storage_blob_container--><g id="link_azure_storage_account_azure_storage_blob_container"><path codeLine="53" d="M1057.74,147.01 C1004.36,164.12 932.5335,187.1482 879.1035,204.2782 " fill="none" id="azure_storage_account-to-azure_storage_blob_container" style="stroke:#1A83AF;stroke-width:2.0;"/><polygon fill="#1A83AF" points="873.39,206.11,883.1815,207.1713,878.1513,204.5835,880.7391,199.5533,873.39,206.11" style="stroke:#1A83AF;stroke-width:2.0;"/></g><!--link azure_storage_account to azure_storage_file_share--><g id="link_azure_storage_account_azure_storage_file_share"><path codeLine="54" d="M1118,147.01 C1118,164.15 1118,183.06 1118,200.2 " fill="none" id="azure_storage_account-to-azure_storage_file_share" style="stroke:#1A83AF;stroke-width:2.0;"/><polygon fill="#1A83AF" points="1118,206.2,1122,197.2,1118,201.2,1114,197.2,1118,206.2" style="stroke:#1A83AF;stroke-width:2.0;"/></g><!--link azure_storage_account to azure_storage_queue--><g id="link_azure_storage_account_azure_storage_queue"><path codeLine="55" d="M1171.34,147.01 C1218.68,164.15 1281.8289,187.0159 1329.1289,204.1559 " fill="none" id="azure_storage_account-to-azure_storage_queue" style="stroke:#1A83AF;stroke-width:2.0;"/><polygon fill="#1A83AF" points="1334.77,206.2,1327.6712,199.3731,1330.0691,204.4966,1324.9457,206.8945,1334.77,206.2" style="stroke:#1A83AF;stroke-width:2.0;"/></g><!--link azure_storage_account to azure_storage_sku--><g id="link_azure_storage_account_azure_storage_sku"><path codeLine="56" d="M1219.86,147.06 C1310.88,164.38 1437.4958,188.4683 1527.5058,205.5983 " fill="none" id="azure_storage_account-to-azure_storage_sku" style="stroke:#1A83AF;stroke-width:2.0;"/><polygon fill="#1A83AF" points="1533.4,206.72,1525.3065,201.1079,1528.4882,205.7852,1523.8109,208.9669,1533.4,206.72" style="stroke:#1A83AF;stroke-width:2.0;"/></g><!--link azure_storage_account to azure_storage_table--><g id="link_azure_storage_account_azure_storage_table"><path codeLine="57" d="M1234.82,141.33 C1361.39,156.34 1569.23,181.66 1748,206.58 C1753.78,207.39 1753.7623,207.3676 1759.7523,208.2376 " fill="none" id="azure_storage_account-to-azure_storage_table" style="stroke:#1A83AF;stroke-width:2.0;"/><polygon fill="#1A83AF" points="1765.69,209.1,1757.3584,203.8479,1760.7419,208.3813,1756.2085,211.7649,1765.69,209.1" style="stroke:#1A83AF;stroke-width:2.0;"/></g><!--SRC=[bP9FRzim3CNl_XG2SYwGBDYIN0Pa0OhjKXHjRyCWq19b2vQbZA8RjCE- - -Iqsrp_IPgZnTyZ7_bSMeq2wpq_YHhh72bciR9-3mIrs1A5mowuG69c39Zbgb-y3fxF0ZTGe_YAxX7PAkWJ3wLLbSSOnOTEwGkegg3GUFtIdWbyJ2NqtA5s3cBSCfFD6yQE6Rt9ryRqoNxJsL8lLfzmW0NIIA_8V3xNYqqVEJlgvDx_Y7lxZ6BHFTfDO1pO78muKYTTjaJ7v63Hl_L9ZxUWjVM5-DXvktlnH1xfpVjz2JeSMjg0YzqnaP4myDCUTuEjSBFMPZKAVvk2CzMUJi1pGoXhKANrA1q2-JHT7W9LwITHA7vbsU-tRF2M0qbjeV0XfcLbHEQaYaFO8xUjf77X85qeXaHClQ102KebapmDv2xaKgL3WsslDiaPwz97cNxmQUPdWys9SgoQwI93xbwrvmzozNsssAwNs-iVLv_75yx6pp0Yd0xf_JtwURnVEHx3vVh_yLokFSPskIp5URde67Fs1m00]--></g></svg>

<svg xmlns="http://www.w3.org/2000/svg" width="1983" height="252" viewBox="0 0 1983 252"><rect width="344" height="39.789" x="7" y="206.58" fill="#3D176E" rx="2.5" ry="2.5" style="stroke:#000d19;stroke-width:.5"/><circle cx="22" cy="226.475" r="11" fill="#ADD1B2" style="stroke:#181818;stroke-width:1"/><path d="M24.969 232.115q-.578.297-1.219.438-.64.156-1.344.156-2.5 0-3.828-1.64-1.312-1.657-1.312-4.782t1.312-4.781q1.328-1.656 3.828-1.656.703 0 1.344.156.656.156 1.219.453v2.719q-.625-.578-1.219-.844-.594-.281-1.219-.281-1.343 0-2.031 1.078-.687 1.062-.687 3.156t.687 3.172q.688 1.062 2.031 1.062.625 0 1.219-.265.594-.281 1.219-.86z"/><text x="41" y="232.36" fill="#D9B8FF" font-family="Helvetica" font-size="17" textLength="302">azure_machine_learning_workspace</text><rect width="332" height="39.789" x="952" y="7" fill="#3D176E" rx="2.5" ry="2.5" style="stroke:#000d19;stroke-width:.5"/><circle cx="967" cy="26.895" r="11" fill="#ADD1B2" style="stroke:#181818;stroke-width:1"/><path d="M969.969 32.535q-.578.297-1.219.438-.64.156-1.344.156-2.5 0-3.828-1.64-1.312-1.657-1.312-4.782t1.312-4.781q1.328-1.656 3.828-1.656.703 0 1.344.156.656.156 1.219.453v2.719q-.625-.578-1.219-.844-.594-.281-1.219-.281-1.343 0-2.031 1.078-.687 1.062-.687 3.156t.687 3.172q.688 1.062 2.031 1.062.625 0 1.219-.265.594-.281 1.219-.86z"/><text x="986" y="32.78" fill="#D9B8FF" font-family="Helvetica" font-size="17" textLength="290">azure_monitor_diagnostic_settings</text><rect width="246" height="39.789" x="386" y="206.58" fill="#3D176E" rx="2.5" ry="2.5" style="stroke:#000d19;stroke-width:.5"/><circle cx="401" cy="226.475" r="11" fill="#ADD1B2" style="stroke:#181818;stroke-width:1"/><path d="M403.969 232.115q-.578.297-1.219.438-.64.156-1.344.156-2.5 0-3.828-1.64-1.312-1.657-1.312-4.782t1.312-4.781q1.328-1.656 3.828-1.656.703 0 1.344.156.656.156 1.219.453v2.719q-.625-.578-1.219-.844-.594-.281-1.219-.281-1.344 0-2.031 1.078-.687 1.062-.687 3.156t.687 3.172q.688 1.062 2.031 1.062.625 0 1.219-.265.594-.281 1.219-.86z"/><text x="420" y="232.36" fill="#D9B8FF" font-family="Helvetica" font-size="17" textLength="204">azure_network_flow_log</text><rect width="233" height="39.789" x="1001.5" y="106.79" fill="#3D176E" rx="2.5" ry="2.5" style="stroke:#000d19;stroke-width:.5"/><circle cx="1016.5" cy="126.684" r="11" fill="#ADD1B2" style="stroke:#181818;stroke-width:1"/><path d="M1019.469 132.325q-.578.297-1.219.438-.64.156-1.344.156-2.5 0-3.828-1.64-1.312-1.657-1.312-4.782t1.312-4.781q1.328-1.656 3.828-1.656.703 0 1.344.156.656.156 1.219.453v2.719q-.625-.579-1.219-.844-.594-.281-1.219-.281-1.343 0-2.031 1.078-.687 1.062-.687 3.156t.687 3.172q.688 1.062 2.031 1.062.625 0 1.219-.265.594-.281 1.219-.86z"/><text x="1035.5" y="132.57" fill="#D9B8FF" font-family="Helvetica" font-size="17" textLength="191">azure_storage_account</text><rect width="291" height="39.789" x="667.5" y="206.58" fill="#3D176E" rx="2.5" ry="2.5" style="stroke:#000d19;stroke-width:.5"/><circle cx="682.5" cy="226.475" r="11" fill="#ADD1B2" style="stroke:#181818;stroke-width:1"/><path d="M685.469 232.115q-.578.297-1.219.438-.64.156-1.344.156-2.5 0-3.828-1.64-1.312-1.657-1.312-4.782t1.312-4.781q1.328-1.656 3.828-1.656.703 0 1.344.156.656.156 1.219.453v2.719q-.625-.578-1.219-.844-.594-.281-1.219-.281-1.343 0-2.031 1.078-.687 1.062-.687 3.156t.687 3.172q.688 1.062 2.031 1.062.625 0 1.219-.265.594-.281 1.219-.86z"/><text x="701.5" y="232.36" fill="#D9B8FF" font-family="Helvetica" font-size="17" textLength="249">azure_storage_blob_container</text><rect width="249" height="39.789" x="993.5" y="206.58" fill="#3D176E" rx="2.5" ry="2.5" style="stroke:#000d19;stroke-width:.5"/><circle cx="1008.5" cy="226.475" r="11" fill="#ADD1B2" style="stroke:#181818;stroke-width:1"/><path d="M1011.469 232.115q-.578.297-1.219.438-.64.156-1.344.156-2.5 0-3.828-1.64-1.312-1.657-1.312-4.782t1.312-4.781q1.328-1.656 3.828-1.656.703 0 1.344.156.656.156 1.219.453v2.719q-.625-.578-1.219-.844-.594-.281-1.219-.281-1.343 0-2.031 1.078-.687 1.062-.687 3.156t.687 3.172q.688 1.062 2.031 1.062.625 0 1.219-.265.594-.281 1.219-.86z"/><text x="1027.5" y="232.36" fill="#D9B8FF" font-family="Helvetica" font-size="17" textLength="207">azure_storage_file_share</text><rect width="220" height="39.789" x="1278" y="206.58" fill="#3D176E" rx="2.5" ry="2.5" style="stroke:#000d19;stroke-width:.5"/><circle cx="1293" cy="226.475" r="11" fill="#ADD1B2" style="stroke:#181818;stroke-width:1"/><path d="M1295.969 232.115q-.578.297-1.219.438-.64.156-1.344.156-2.5 0-3.828-1.64-1.312-1.657-1.312-4.782t1.312-4.781q1.328-1.656 3.828-1.656.703 0 1.344.156.656.156 1.219.453v2.719q-.625-.578-1.219-.844-.594-.281-1.219-.281-1.343 0-2.031 1.078-.687 1.062-.687 3.156t.687 3.172q.688 1.062 2.031 1.062.625 0 1.219-.265.594-.281 1.219-.86z"/><text x="1312" y="232.36" fill="#D9B8FF" font-family="Helvetica" font-size="17" textLength="178">azure_storage_queue</text><rect width="197" height="39.789" x="1533.5" y="206.58" fill="#3D176E" rx="2.5" ry="2.5" style="stroke:#000d19;stroke-width:.5"/><circle cx="1548.5" cy="226.475" r="11" fill="#ADD1B2" style="stroke:#181818;stroke-width:1"/><path d="M1551.469 232.115q-.578.297-1.219.438-.64.156-1.344.156-2.5 0-3.828-1.64-1.312-1.657-1.312-4.782t1.312-4.781q1.328-1.656 3.828-1.656.703 0 1.344.156.656.156 1.219.453v2.719q-.625-.578-1.219-.844-.594-.281-1.219-.281-1.343 0-2.031 1.078-.687 1.062-.687 3.156t.687 3.172q.688 1.062 2.031 1.062.625 0 1.219-.265.594-.281 1.219-.86z"/><text x="1567.5" y="232.36" fill="#D9B8FF" font-family="Helvetica" font-size="17" textLength="155">azure_storage_sku</text><rect width="210" height="39.789" x="1766" y="206.58" fill="#3D176E" rx="2.5" ry="2.5" style="stroke:#000d19;stroke-width:.5"/><circle cx="1781" cy="226.475" r="11" fill="#ADD1B2" style="stroke:#181818;stroke-width:1"/><path d="M1783.969 232.115q-.578.297-1.219.438-.64.156-1.344.156-2.5 0-3.828-1.64-1.312-1.657-1.312-4.782t1.312-4.781q1.328-1.656 3.828-1.656.703 0 1.344.156.656.156 1.219.453v2.719q-.625-.578-1.219-.844-.594-.281-1.219-.281-1.343 0-2.031 1.078-.687 1.062-.687 3.156t.687 3.172q.688 1.062 2.031 1.062.625 0 1.219-.265.594-.281 1.219-.86z"/><text x="1800" y="232.36" fill="#D9B8FF" font-family="Helvetica" font-size="17" textLength="168">azure_storage_table</text><path fill="none" d="M1118 47.22v53.19" style="stroke:#1a83af;stroke-width:2"/><path fill="#1A83AF" d="m1118 106.41 4-9-4 4-4-4z" style="stroke:#1a83af;stroke-width:2"/><path fill="none" d="M1001.45 139.82c-163.31 17.01-455.402 47.428-644.322 67.108" style="stroke:#1a83af;stroke-width:2"/><path fill="#1A83AF" d="m351.16 207.55 9.366 3.046-4.393-3.564 3.564-4.393z" style="stroke:#1a83af;stroke-width:2"/><path fill="none" d="M1001.3 146.43c-106.64 17.12-257.756 41.389-365.646 58.709" style="stroke:#1a83af;stroke-width:2"/><path fill="#1A83AF" d="m629.73 206.09 9.52 2.523-4.583-3.315 3.315-4.584z" style="stroke:#1a83af;stroke-width:2"/><path fill="none" d="M1057.74 147.01c-53.38 17.11-125.206 40.138-178.636 57.268" style="stroke:#1a83af;stroke-width:2"/><path fill="#1A83AF" d="m873.39 206.11 9.792 1.061-5.03-2.588 2.587-5.03z" style="stroke:#1a83af;stroke-width:2"/><path fill="none" d="M1118 147.01v53.19" style="stroke:#1a83af;stroke-width:2"/><path fill="#1A83AF" d="m1118 206.2 4-9-4 4-4-4z" style="stroke:#1a83af;stroke-width:2"/><path fill="none" d="M1171.34 147.01a689211 689211 0 0 1 157.789 57.146" style="stroke:#1a83af;stroke-width:2"/><path fill="#1A83AF" d="m1334.77 206.2-7.099-6.827 2.398 5.124-5.123 2.397z" style="stroke:#1a83af;stroke-width:2"/><path fill="none" d="M1219.86 147.06c91.02 17.32 217.636 41.408 307.646 58.538" style="stroke:#1a83af;stroke-width:2"/><path fill="#1A83AF" d="m1533.4 206.72-8.094-5.612 3.182 4.677-4.677 3.182z" style="stroke:#1a83af;stroke-width:2"/><path fill="none" d="M1234.82 141.33c126.57 15.01 334.41 40.33 513.18 65.25 5.78.81 5.762.788 11.752 1.658" style="stroke:#1a83af;stroke-width:2"/><path fill="#1A83AF" d="m1765.69 209.1-8.332-5.252 3.384 4.533-4.534 3.384z" style="stroke:#1a83af;stroke-width:2"/></svg>
